icons/global/user-settings/dismissable-contents.svg

<svg width="24" height="24" viewBox="0 0 24 24" fill="none" xmlns="http://www.w3.org/2000/svg">
<path d="M2 21.215L20.384 2.82996L21.8 4.24496L3.414 22.629L2 21.215ZM10.184 18.811C10.7813 18.9356 11.3898 18.999 12 19C18.352 19 23 12 23 12C23 12 21.964 10.44 20.203 8.79296L15.826 13.169C15.634 13.7952 15.2914 14.3649 14.8282 14.8281C14.365 15.2913 13.7953 15.6339 13.169 15.826L10.184 18.811ZM12.482 8.02996C11.8797 7.95682 11.2686 8.02166 10.695 8.21959C10.1215 8.41751 9.60044 8.74332 9.17141 9.17236C8.74237 9.6014 8.41655 10.1224 8.21863 10.696C8.02071 11.2696 7.95586 11.8806 8.029 12.483L4.596 15.915C2.353 14.037 1 12 1 12C1 12 5.648 4.99996 12 4.99996C13.05 4.99996 14.055 5.19196 15 5.51096L12.481 8.02996H12.482Z" fill="black"/>
</svg>

<svg xmlns="http://www.w3.org/2000/svg" width="24" height="24" fill="none">
  <path fill="#000" d="M2 21.215 20.384 2.83 21.8 4.245 3.414 22.629 2 21.215Zm8.184-2.404A8.965 8.965 0 0 0 12 19c6.352 0 11-7 11-7s-1.036-1.56-2.797-3.207l-4.377 4.376a4.008 4.008 0 0 1-2.657 2.657l-2.985 2.985ZM12.482 8.03a4 4 0 0 0-4.453 4.453l-3.433 3.432C2.353 14.037 1 12 1 12s4.648-7 11-7c1.05 0 2.055.192 3 .511L12.481 8.03h.001Z"/>
</svg>
